; generated by SuperSlicer 2.5.59 on 2023-06-04 at 15:47:17 UTC

; 

; external perimeters extrusion width = 0.40mm
; perimeters extrusion width = 0.46mm
; infill extrusion width = 0.64mm
; solid infill extrusion width = 0.56mm
; top infill extrusion width = 0.40mm
; first layer extrusion width = 0.50mm

; external perimeters extrusion width = 0.40mm
; perimeters extrusion width = 0.46mm
; infill extrusion width = 0.64mm
; solid infill extrusion width = 0.56mm
; top infill extrusion width = 0.40mm
; first layer extrusion width = 0.50mm

; object:{"name":"z_belt_cover_a_x2","id":"z_belt_cover_a_x2.stl id:0 copy 0","object_center":[141.000000,175.000000,0.000000],"boundingbox_center":[141.000000,175.000000,2.500002],"boundingbox_size":[62.000000,62.000000,5.000004]}
EXCLUDE_OBJECT_DEFINE NAME=z_belt_cover_a_x2_stl_id_0_copy_0 CENTER=141.000000,175.000000 POLYGON=[[110.000000,164.000000],[130.000000,144.000000],[169.000000,144.000000],[169.520944,144.045584],[170.026064,144.180928],[170.500000,144.401920],[170.928368,144.701872],[171.298128,145.071648],[171.598080,145.500000],[171.819072,145.973936],[171.954416,146.479072],[172.000000,147.000000],[172.000000,184.757360],[171.963056,185.226672],[171.853168,185.684416],[171.673024,186.119328],[171.427056,186.520720],[171.121328,186.878672],[152.878672,205.121328],[152.520720,205.427056],[152.119328,205.673024],[151.684416,205.853184],[151.226656,205.963072],[150.757360,206.000000],[113.000000,206.000000],[112.479056,205.954416],[111.973936,205.819072],[111.500000,205.598080],[111.071640,205.298128],[110.701864,204.928368],[110.401928,204.500000],[110.180920,204.026064],[110.045576,203.520944],[110.000000,203.000000],[110.000000,164.000000]]
; object:{"name":"z_belt_cover_b_x2","id":"z_belt_cover_b_x2.stl id:1 copy 0","object_center":[209.000000,175.000000,0.000000],"boundingbox_center":[209.000000,175.000000,2.500002],"boundingbox_size":[62.000000,62.000000,5.000004]}
EXCLUDE_OBJECT_DEFINE NAME=z_belt_cover_b_x2_stl_id_1_copy_0 CENTER=209.000000,175.000000 POLYGON=[[178.000000,147.000000],[178.045584,146.479072],[178.180928,145.973936],[178.401920,145.500000],[178.701872,145.071648],[179.071648,144.701872],[179.500000,144.401920],[179.973936,144.180928],[180.479056,144.045584],[181.000000,144.000000],[220.000000,144.000000],[240.000000,164.000000],[240.000000,203.000000],[239.954416,203.520944],[239.819072,204.026064],[239.598080,204.500000],[239.298128,204.928368],[238.928368,205.298128],[238.500000,205.598080],[238.026064,205.819072],[237.520944,205.954416],[237.000000,206.000000],[199.242640,206.000000],[198.773328,205.963072],[198.315584,205.853184],[197.880672,205.673024],[197.479280,205.427056],[197.121328,205.121328],[178.878672,186.878672],[178.572960,186.520720],[178.326976,186.119328],[178.146832,185.684416],[178.036944,185.226672],[178.000000,184.757360],[178.000000,147.000000]]
; plater:{"center":[175.000000,175.000000,0.000000],"boundingbox_center":[175.000000,175.000000,2.500002],"boundingbox_size":[130.000000,62.000000,5.000004]}

M73 P0 R49
M73 C46
;TYPE:Custom
; custom gcode: start_gcode
M117

;PRINT_START

;; If you are passing variables to PRINT_START, comment out above line and uncomment the last 3 lines instead.
;; Guide: https://github.com/AndrewEllis93/Print-Tuning-Guide/blob/main/articles/passing_slicer_variables.md
;; Make sure the variable names match (for example if you use "EXTRUDER" instead of "HOTEND")

M104 S0 ; Stops PS/SS from sending temp waits separately
M140 S0
PRINT_START ADAPTIVE_PURGE=True BED=110 HOTEND=260 CHAMBER=50
; custom gcode end: start_gcode
M107
G21 ; set units to millimeters
G90 ; use absolute coordinates
M83 ; use relative distances for extrusion
; custom gcode: start_filament_gcode
; Filament gcode
; Macro syntax: https://help.prusa3d.com/article/macros_1775

; Set pressure advance per-filament
;SET_PRESSURE_ADVANCE ADVANCE=0.0x

; Set pressure advance per-filament for different nozzle sizes
;SET_PRESSURE_ADVANCE ADVANCE=0.0x
;

; custom gcode end: start_filament_gcode
;_TOOLCHANGE 0
;LAYER_CHANGE
;Z:0.25
;HEIGHT:0.25
G1 Z0.25 F27000
G92 E0
M104 S260 ; set temperature
M73 C0
G1 E-0.5 F1800
G1 Z0.45 F27000
; printing object z_belt_cover_a_x2.stl id:0 copy 0
EXCLUDE_OBJECT_START NAME=z_belt_cover_a_x2_stl_id_0_copy_0
M204 S1000
G1 X120.525 Y199.552
G1 Z0.25
G1 E0.5 F1800
;TYPE:Internal perimeter
;WIDTH:0.5
G1 X121.143 Y199.398 E0.0278
G1 X121.491 Y199.223 E0.01696
G1 X121.929 Y198.982 E0.02183
G1 X122.558 Y198.416 E0.0369
G1 X123.039 Y197.705 E0.03742
G1 X123.333 Y196.899 E0.03742
G1 X123.416 Y196.114 E0.03441
G1 X123.39 Y195.663 E0.0197
G1 X123.217 Y194.916 E0.03344
G1 X122.993 Y194.441 E0.02289
G1 X122.791 Y194.092 E0.0176
G1 X122.257 Y193.477 E0.0355
G1 X121.554 Y192.985 E0.03743
G1 X120.752 Y192.678 E0.03744
G1 X119.905 Y192.574 E0.03722
G1 X119.528 Y192.618 E0.01657
G1 X119.045 Y192.679 E0.02121
G1 X118.246 Y192.985 E0.0373
G1 X117.543 Y193.477 E0.03743
G1 X116.98 Y194.125 E0.03743
G1 X116.614 Y194.841 E0.03507
G1 X116.497 Y195.234 E0.01786
G1 X116.408 Y195.696 E0.02054
G1 X116.386 Y196.078 E0.01667
G1 X116.416 Y196.548 E0.02054
G1 X116.487 Y196.954 E0.01799
G1 X116.761 Y197.705 E0.03485
G1 X117.242 Y198.416 E0.03743
G1 X117.88 Y198.99 E0.03743
G1 X118.632 Y199.39 E0.03717
G1 X119.108 Y199.512 E0.02142
G1 X119.481 Y199.6 E0.0167
G1 X120.329 Y199.6 E0.03701
G1 X120.525 Y199.552 E0.00878
G1 X120.417 Y199.119 F27000
G1 F1800
G1 X120.987 Y198.977 E0.02564
G1 X121.283 Y198.828 E0.01443
G1 X121.669 Y198.616 E0.01922
G1 X122.219 Y198.121 E0.03226
G1 X122.638 Y197.5 E0.03265
G1 X122.895 Y196.797 E0.03264
G1 X122.968 Y196.103 E0.03043
G1 X122.946 Y195.727 E0.01645
G1 X122.792 Y195.063 E0.02971
G1 X122.597 Y194.648 E0.02
G1 X122.426 Y194.352 E0.01491
G1 X121.956 Y193.812 E0.03123
G1 X121.343 Y193.382 E0.03266
G1 X120.643 Y193.114 E0.03266
G1 X119.904 Y193.023 E0.0325
G1 X119.581 Y193.061 E0.01415
G1 X119.155 Y193.115 E0.01876
G1 X118.457 Y193.382 E0.03256
G1 X117.844 Y193.812 E0.03266
G1 X117.352 Y194.377 E0.03265
G1 X117.03 Y195.008 E0.03091
G1 X116.931 Y195.34 E0.0151
G1 X116.852 Y195.751 E0.01827
G1 X116.833 Y196.077 E0.01422
G1 X116.86 Y196.495 E0.01827
G1 X116.92 Y196.838 E0.01519
G1 X117.162 Y197.5 E0.03075
G1 X117.581 Y198.121 E0.03265
G1 X118.138 Y198.622 E0.03265
G1 X118.795 Y198.971 E0.03246
G1 X119.215 Y199.079 E0.01892
G1 X119.533 Y199.154 E0.01424
G1 X120.274 Y199.154 E0.03235
G1 X120.417 Y199.119 E0.00639
G1 X120.309 Y198.686 F27000
G1 F1800
G1 X120.831 Y198.555 E0.02347
G1 X121.075 Y198.433 E0.01191
G1 X121.409 Y198.249 E0.01661
G1 X121.88 Y197.826 E0.02763
G1 X122.238 Y197.296 E0.02787
G1 X122.457 Y196.696 E0.02786
G1 X122.52 Y196.093 E0.02644
G1 X122.503 Y195.791 E0.0132
G1 X122.368 Y195.21 E0.02598
G1 X122.201 Y194.855 E0.01711
G1 X122.061 Y194.613 E0.01221
G1 X121.655 Y194.146 E0.02696
G1 X121.132 Y193.78 E0.02788
G1 X120.535 Y193.551 E0.02788
G1 X119.902 Y193.473 E0.02778
G1 X119.635 Y193.504 E0.01173
G1 X119.264 Y193.551 E0.01632
G1 X118.668 Y193.78 E0.02782
G1 X118.145 Y194.146 E0.02788
G1 X117.725 Y194.628 E0.02787
G1 X117.446 Y195.175 E0.02676
G1 X117.365 Y195.446 E0.01233
G1 X117.296 Y195.806 E0.016
G1 X117.281 Y196.076 E0.01177
G1 X117.304 Y196.442 E0.016
G1 X117.353 Y196.722 E0.0124
G1 X117.562 Y197.296 E0.02665
G1 X117.92 Y197.826 E0.02787
G1 X118.395 Y198.253 E0.02788
G1 X118.957 Y198.552 E0.02775
G1 X119.322 Y198.645 E0.01642
G1 X119.585 Y198.708 E0.01179
G1 X120.22 Y198.708 E0.02768
G1 X120.309 Y198.686 E0.004
M204 S750
G1 X120.201 Y198.252 F27000
;TYPE:External perimeter
G1 F1800
G1 X120.675 Y198.134 E0.02131
G1 X120.867 Y198.038 E0.00938
G1 X121.149 Y197.883 E0.014
G1 X121.541 Y197.53 E0.02299
G1 X121.837 Y197.092 E0.02309
G1 X122.018 Y196.594 E0.02309
G1 X122.073 Y196.082 E0.02246
G1 X122.059 Y195.854 E0.00995
G1 X121.944 Y195.357 E0.02226
G1 X121.805 Y195.062 E0.01422
G1 X121.696 Y194.873 E0.00952
G1 X121.355 Y194.48 E0.0227
G1 X120.921 Y194.177 E0.0231
G1 X120.426 Y193.987 E0.0231
G1 X119.901 Y193.923 E0.02306
G1 X119.689 Y193.947 E0.00931
G1 X119.374 Y193.987 E0.01387
G1 X118.879 Y194.177 E0.02308
G1 X118.445 Y194.48 E0.0231
G1 X118.098 Y194.88 E0.0231
G1 X117.862 Y195.342 E0.0226
G1 X117.799 Y195.552 E0.00957
G1 X117.74 Y195.861 E0.01373
G1 X117.728 Y196.075 E0.00932
G1 X117.748 Y196.389 E0.01373
G1 X117.786 Y196.606 E0.0096
G1 X117.963 Y197.092 E0.02255
G1 X118.259 Y197.53 E0.02309
G1 X118.653 Y197.885 E0.0231
G1 X119.12 Y198.133 E0.02305
G1 X119.429 Y198.212 E0.01392
G1 X119.637 Y198.261 E0.00933
G1 X120.165 Y198.261 E0.02302
G1 X120.201 Y198.252 E0.00162
;WIPE_START
M204 S3500
G1 X120.479 Y198.54 F27000
;WIPE_END
; acceleration to travel
G1 X130.162 Y202.659
; decel to extrusion
M204 S1000
G1 X132.929 Y203.836
; end travel
;TYPE:Internal perimeter
G1 F1800
G1 X113.081 Y203.836 E0.86556
G1 X112.844 Y203.813 E0.01039
G1 X112.693 Y203.769 E0.00685
G1 X112.554 Y203.696 E0.00685
G1 X112.443 Y203.609 E0.00616
G1 X112.295 Y203.43 E0.0101
G1 X112.231 Y203.307 E0.00605
G1 X112.187 Y203.156 E0.00685
G1 X112.164 Y202.919 E0.01039
G1 X112.164 Y165.689 E1.62357
G1 X113.311 Y165.689 E0.05002
G1 X113.311 Y172.689 E0.30526
G1 X126.689 Y172.689 E0.58341
G1 X126.689 Y165.689 E0.30526
G1 X131.311 Y165.689 E0.20156
G1 X131.311 Y175.238 E0.41642
G1 X136.268 Y175.238 E0.21617
G1 X136.325 Y175.525 E0.01278
G1 X135.724 Y175.774 E0.02838
G1 X127.322 Y180.625 E0.42307
G1 X126.752 Y181.062 E0.03132
G1 X126.247 Y181.721 E0.03619
G1 X125.93 Y182.487 E0.03619
G1 X125.836 Y183.199 E0.03132
G1 X125.836 Y192.901 E0.42307
G1 X125.93 Y193.613 E0.03132
G1 X126.247 Y194.379 E0.03619
G1 X126.752 Y195.038 E0.03619
G1 X127.322 Y195.475 E0.03132
G1 X133.354 Y198.957 E0.30374
G1 X133.54 Y199.092 E0.01001
G1 X133.699 Y199.272 E0.01046
G1 X133.772 Y199.405 E0.00661
G1 X133.822 Y199.564 E0.00728
G1 X133.837 Y199.706 E0.00625
G1 X133.846 Y202.921 E0.14021
G1 X133.823 Y203.156 E0.01029
G1 X133.779 Y203.307 E0.00685
G1 X133.706 Y203.446 E0.00685
G1 X133.619 Y203.557 E0.00616
G1 X133.44 Y203.705 E0.0101
G1 X133.317 Y203.769 E0.00605
G1 X133.166 Y203.813 E0.00685
G1 X132.929 Y203.836 E0.01039
G1 E-0.5
M204 S3500
G1 Z0.45 F27000
; acceleration to travel
G1 X156.105 Y167.681
; decel to extrusion
M204 S1000
G1 X162.726 Y157.351
; end travel
G1 Z0.25
G1 E0.5 F1800
G1 X163.343 Y157.198 E0.02772
G1 X163.691 Y157.023 E0.01696
G1 X164.129 Y156.782 E0.02184
G1 X164.758 Y156.216 E0.0369
G1 X165.239 Y155.505 E0.03742
G1 X165.533 Y154.699 E0.03742
M73 P1 R49
G1 X165.616 Y153.914 E0.03441
G1 X165.59 Y153.463 E0.0197
G1 X165.417 Y152.716 E0.03343
G1 X165.193 Y152.241 E0.02289
G1 X164.991 Y151.892 E0.0176
G1 X164.457 Y151.277 E0.0355
G1 X163.754 Y150.785 E0.03743
G1 X162.952 Y150.478 E0.03744
G1 X162.105 Y150.374 E0.03722
G1 X161.728 Y150.418 E0.01657
G1 X161.245 Y150.479 E0.02121
G1 X160.446 Y150.785 E0.0373
G1 X159.743 Y151.277 E0.03743
G1 X159.18 Y151.925 E0.03743
G1 X158.814 Y152.641 E0.03507
G1 X158.697 Y153.034 E0.01786
G1 X158.608 Y153.496 E0.02054
G1 X158.586 Y153.878 E0.01667
G1 X158.616 Y154.348 E0.02053
G1 X158.687 Y154.754 E0.01799
G1 X158.961 Y155.505 E0.03485
G1 X159.442 Y156.216 E0.03742
G1 X160.08 Y156.79 E0.03743
G1 X160.832 Y157.19 E0.03717
G1 X161.308 Y157.312 E0.02142
G1 X161.681 Y157.4 E0.0167
G1 X162.529 Y157.4 E0.03701
G1 X162.726 Y157.351 E0.00885
G1 X162.618 Y156.918 F27000
G1 F1800
G1 X163.187 Y156.777 E0.02556
G1 X163.483 Y156.628 E0.01443
G1 X163.869 Y156.416 E0.01922
G1 X164.419 Y155.921 E0.03226
G1 X164.838 Y155.3 E0.03265
G1 X165.095 Y154.597 E0.03264
G1 X165.168 Y153.903 E0.03043
G1 X165.146 Y153.527 E0.01645
G1 X164.992 Y152.863 E0.02971
G1 X164.797 Y152.448 E0.02
G1 X164.626 Y152.152 E0.01491
G1 X164.156 Y151.612 E0.03123
G1 X163.543 Y151.182 E0.03266
G1 X162.843 Y150.914 E0.03266
G1 X162.104 Y150.823 E0.0325
G1 X161.781 Y150.861 E0.01415
G1 X161.355 Y150.915 E0.01876
G1 X160.657 Y151.182 E0.03256
G1 X160.044 Y151.612 E0.03266
G1 X159.552 Y152.177 E0.03265
G1 X159.23 Y152.808 E0.03091
G1 X159.131 Y153.14 E0.0151
G1 X159.052 Y153.551 E0.01827
G1 X159.033 Y153.877 E0.01422
G1 X159.06 Y154.295 E0.01827
G1 X159.12 Y154.638 E0.01519
G1 X159.362 Y155.3 E0.03075
G1 X159.781 Y155.921 E0.03265
G1 X160.338 Y156.422 E0.03265
G1 X160.995 Y156.771 E0.03246
G1 X161.415 Y156.879 E0.01892
G1 X161.733 Y156.954 E0.01424
G1 X162.474 Y156.954 E0.03235
G1 X162.618 Y156.918 E0.00647
G1 X162.51 Y156.485 F27000
G1 F1800
G1 X163.031 Y156.355 E0.0234
G1 X163.275 Y156.233 E0.01191
G1 X163.609 Y156.049 E0.01661
G1 X164.08 Y155.626 E0.02763
G1 X164.438 Y155.096 E0.02787
G1 X164.657 Y154.496 E0.02786
G1 X164.72 Y153.893 E0.02644
G1 X164.703 Y153.591 E0.0132
G1 X164.568 Y153.01 E0.02598
G1 X164.401 Y152.655 E0.01711
G1 X164.261 Y152.413 E0.01221
G1 X163.855 Y151.946 E0.02696
G1 X163.332 Y151.58 E0.02788
M73 P1 R48
G1 X162.735 Y151.351 E0.02788
G1 X162.102 Y151.273 E0.02778
G1 X161.835 Y151.304 E0.01173
G1 X161.464 Y151.351 E0.01632
G1 X160.868 Y151.58 E0.02782
G1 X160.345 Y151.946 E0.02788
G1 X159.925 Y152.428 E0.02787
G1 X159.646 Y152.975 E0.02676
G1 X159.565 Y153.246 E0.01233
G1 X159.496 Y153.606 E0.016
G1 X159.481 Y153.876 E0.01177
G1 X159.504 Y154.242 E0.016
G1 X159.553 Y154.522 E0.0124
G1 X159.762 Y155.096 E0.02665
G1 X160.12 Y155.626 E0.02787
G1 X160.595 Y156.053 E0.02788
G1 X161.157 Y156.352 E0.02776
G1 X161.522 Y156.445 E0.01642
G1 X161.785 Y156.508 E0.01179
G1 X162.42 Y156.508 E0.02768
G1 X162.51 Y156.485 E0.00408
M204 S750
G1 X162.403 Y156.052 F27000
;TYPE:External perimeter
G1 F1800
G1 X162.875 Y155.934 E0.02124
G1 X163.067 Y155.838 E0.00938
G1 X163.349 Y155.683 E0.014
G1 X163.741 Y155.33 E0.02299
G1 X164.037 Y154.892 E0.02309
G1 X164.218 Y154.394 E0.02309
G1 X164.273 Y153.882 E0.02246
G1 X164.259 Y153.654 E0.00995
G1 X164.144 Y153.157 E0.02226
G1 X164.005 Y152.862 E0.01422
G1 X163.896 Y152.673 E0.00952
G1 X163.555 Y152.28 E0.0227
G1 X163.121 Y151.977 E0.0231
G1 X162.626 Y151.787 E0.0231
G1 X162.101 Y151.722 E0.02306
G1 X161.889 Y151.747 E0.00931
G1 X161.574 Y151.787 E0.01387
G1 X161.079 Y151.977 E0.02308
G1 X160.645 Y152.28 E0.0231
G1 X160.298 Y152.68 E0.0231
G1 X160.062 Y153.142 E0.0226
G1 X159.999 Y153.352 E0.00957
G1 X159.94 Y153.661 E0.01373
G1 X159.928 Y153.875 E0.00933
G1 X159.948 Y154.189 E0.01373
G1 X159.986 Y154.406 E0.0096
G1 X160.163 Y154.892 E0.02255
G1 X160.459 Y155.33 E0.02309
G1 X160.853 Y155.685 E0.0231
G1 X161.32 Y155.933 E0.02305
G1 X161.629 Y156.012 E0.01392
G1 X161.837 Y156.061 E0.00933
G1 X162.365 Y156.061 E0.02302
G1 X162.403 Y156.052 E0.00169
;WIPE_START
M204 S3500
G1 X162.68 Y156.34 F27000
;WIPE_END
G1 E-0.5 F1800
G1 Z0.45 F27000
; acceleration to travel
G1 X145.504 Y192.753
; decel to extrusion
M204 S1000
G1 X140.597 Y203.157
; end travel
G1 Z0.25
G1 E0.5 F1800
;TYPE:Internal perimeter
G1 X140.574 Y202.919 E0.01044
G1 X140.574 Y199.809 E0.13561
G1 X140.597 Y199.581 E0.01001
G1 X140.674 Y199.354 E0.01046
G1 X140.752 Y199.224 E0.00661
G1 X140.863 Y199.103 E0.00714
G1 X141.066 Y198.957 E0.01089
G1 X147.098 Y195.475 E0.30374
G1 X147.668 Y195.038 E0.03132
G1 X148.173 Y194.379 E0.03619
G1 X148.49 Y193.613 E0.03619
G1 X148.584 Y192.901 E0.03132
G1 X148.584 Y183.199 E0.42307
G1 X148.49 Y182.487 E0.03132
G1 X148.173 Y181.721 E0.03619
G1 X147.668 Y181.062 E0.03619
G1 X147.098 Y180.625 E0.03132
G1 X138.696 Y175.774 E0.42307
G1 X138.095 Y175.525 E0.02838
G1 X138.152 Y175.238 E0.01278
G1 X143.239 Y175.238 E0.22184
G1 X143.239 Y152.925 E0.97304
G1 X143.174 Y152.184 E0.03246
G1 X142.962 Y151.393 E0.03569
G1 X142.616 Y150.651 E0.03569
G1 X142.147 Y149.981 E0.03569
G1 X141.568 Y149.402 E0.03569
G1 X140.898 Y148.932 E0.03569
G1 X140.156 Y148.587 E0.03569
G1 X139.365 Y148.375 E0.03569
G1 X138.624 Y148.31 E0.03246
G1 X131.689 Y148.31 E0.30242
G1 X131.689 Y146.164 E0.09356
G1 X169.025 Y146.174 E1.6282
G1 X169.154 Y146.186 E0.00565
G1 X169.307 Y146.231 E0.00694
G1 X169.43 Y146.295 E0.00605
G1 X169.609 Y146.443 E0.0101
G1 X169.696 Y146.554 E0.00617
G1 X169.769 Y146.693 E0.00684
G1 X169.813 Y146.844 E0.00685
G1 X169.836 Y147.081 E0.01039
G1 X169.836 Y184.678 E1.63957
G1 X169.816 Y184.892 E0.00939
